Assets/ico-file-text.svg

<svg version="1.1" xmlns="http://www.w3.org/2000/svg" width="32" height="32" viewBox="0 0 32 32">
<path d="M27 0h-24c-1.65 0-3 1.35-3 3v26c0 1.65 1.35 3 3 3h24c1.65 0 3-1.35 3-3v-26c0-1.65-1.35-3-3-3zM26 28h-22v-24h22v24zM8 14h14v2h-14zM8 18h14v2h-14zM8 22h14v2h-14zM8 10h14v2h-14z" fill="#61666D"></path>
</svg>

<svg xmlns="http://www.w3.org/2000/svg" width="32" height="32" viewBox="0 0 32 32"><path fill="#61666d" d="M27 0H3C1.35 0 0 1.35 0 3v26c0 1.65 1.35 3 3 3h24c1.65 0 3-1.35 3-3V3c0-1.65-1.35-3-3-3m-1 28H4V4h22zM8 14h14v2H8zm0 4h14v2H8zm0 4h14v2H8zm0-12h14v2H8z"/></svg>
